teeny/outline/audio-cable.svg

<svg width="15" height="15" viewBox="0 0 15 15" fill="none" xmlns="http://www.w3.org/2000/svg">
<path d="M6.5 1.5L6.14645 1.14645C6.05268 1.24021 6 1.36739 6 1.5H6.5ZM7.5 0.5L7.85355 0.146447C7.65829 -0.0488155 7.34171 -0.0488155 7.14645 0.146447L7.5 0.5ZM8.5 1.5H9C9 1.36739 8.94732 1.24021 8.85355 1.14645L8.5 1.5ZM6.5 9H8.5V8H6.5V9ZM9 9.5V12.5H10V9.5H9ZM8.5 13H6.5V14H8.5V13ZM6 12.5V9.5H5V12.5H6ZM6.5 13C6.22386 13 6 12.7761 6 12.5H5C5 13.3284 5.67157 14 6.5 14V13ZM9 12.5C9 12.7761 8.77614 13 8.5 13V14C9.32843 14 10 13.3284 10 12.5H9ZM8.5 9C8.77614 9 9 9.22386 9 9.5H10C10 8.67157 9.32843 8 8.5 8V9ZM6.5 8C5.67157 8 5 8.67157 5 9.5H6C6 9.22386 6.22386 9 6.5 9V8ZM7 8.5V3.5H6V8.5H7ZM6.5 4H8.5V3H6.5V4ZM8 3.5V8.5H9V3.5H8ZM7 13V15H8V13H7ZM7 3.5V1.5H6V3.5H7ZM6.85355 1.85355L7.85355 0.853553L7.14645 0.146447L6.14645 1.14645L6.85355 1.85355ZM7.14645 0.853553L8.14645 1.85355L8.85355 1.14645L7.85355 0.146447L7.14645 0.853553ZM8 1.5V3.5H9V1.5H8Z" fill="black"/>
</svg>

<svg viewBox="0 0 15 15" xmlns="http://www.w3.org/2000/svg"><path d="M6.5 1.5l-.36-.36c-.1.09-.15.22-.15.35h.5Zm1-1l.35-.36c-.2-.2-.52-.2-.71 0l.35.35Zm1 1H9c0-.14-.06-.26-.15-.36l-.36.35ZM6.5 9h2V8h-2v1Zm2.5.5v3h1v-3H9ZM8.5 13h-2v1h2v-1ZM6 12.5v-3H5v3h1Zm.5.5c-.28 0-.5-.23-.5-.5H5c0 .82.67 1.5 1.5 1.5v-1Zm2.5-.5c0 .27-.23.5-.5.5v1c.82 0 1.5-.68 1.5-1.5H9ZM8.5 9c.27 0 .5.22.5.5h1C10 8.67 9.32 8 8.5 8v1Zm-2-1C5.67 8 5 8.67 5 9.5h1c0-.28.22-.5.5-.5V8Zm.5.5v-5H6v5h1ZM6.5 4h2V3h-2v1ZM8 3.5v5h1v-5H8ZM7 13v2h1v-2H7Zm0-9.5v-2H6v2h1Zm-.15-1.65l1-1L7.14.14l-1 1 .7.7Zm.29-1l1 .99 .7-.71 -1-1.01 -.71.7Zm.85.64v2h1v-2h-1Z"/></svg>
